X: 4
T: Tom Paine's Bones
C: Graham Moore
M:C|
L:1/4
K:D
Q:135
"D"z4|"A"z4|"Bm"z4|"G"z4||
P: Verse
|:D|"D"DDDF|"A"E/E/- E z A/A/|"Bm"B/B/ B d c|"G"B2zA|
w: As I dreamed out one ev'nin __by a ri-ver of dis-con-tent _I
"D" A A A F|"Bm" A A/B/-B F/F/|"G"F/E/E/E/ E/C/ D|
w:bumped right in-to old Tom Paine as a ru-n-ning down the road he went
"G"z z z/ D/D|"D"DDDF|"A" (3EEE z A|"Bm"BBd c/B/-|"G"B2zA|
w: He said I can't stop right now my son King George is af-ter me, _He'll
"D"AF/A/-AF|"Bm"A A/B/-BF/F/|"G"F/E/E/E/ E/D/C/D/-|D ||
w:have a ro-pe a-round my thr-oat and they'll hang me on the li-ber-ty tr-ee
P: Chorus
A,/A, B,|"D"D3/ D/ D D|"A" A,2 z2|"Bm"B3/B/d d|"G"B3z|
w: And I will dance to Tom Paine's bones dance to Tom Paine's bones
"D" A A/F/ A A|"Bm"A A/B/-BD/E/|"G"F/E/E/D/-D C|"G" D z/ A,/ A, B,|
w: Dance in the old-est boots I o-wn. to the rhy-th'm of T-om Paine's bones And I will
"D"D3/D D D |"A"A,2 z2|"Bm"B3/B/ d d|"G"B3 z|
w: dance to Tom Paine's bones dance to Tom Paine's bones
"D"A A/F/ A A |"Bm" A A/B/-B D/E/|"G"F/E/E/D/-D C| D2 z2|
w: dance in the old-est boots I own _to the rhy-thm of Tom _Paine's bones
P: Vln
"D"(vF/A/[F/d]) (uF/A/[F/d]) vF/A/|"A"(vE/A/[E/c/]) (uE/A/[E/c/]) vE/A/|"Bm"(vF/B/[F/d]) (uF/B/[F/d]) vF/B/|"G"(vF/B/[G/d]) (uG/B/[G/d]) vG/B/|
"D"(vF/A/[F/d]) (uF/A/[F/d]) vF/A/|"Bm"[B/E/][A/D/]-[AD][A2F2]|"G"F/E/E/D/ D/C/-C| D/D/ E/D/ E/D/E/D/ :|
W:Well, I only talked about freedom
W:And justice for everyone
W:But ever since the first word I spoke
W:I′ve been looking down the barrel of a gun
W:And they said I preached revolution
W:Let me say in my defence
W:That all I did wherever I went
W:Was to talk a lot of common sense
W:
W:Chorus
W:
W:Well, old Tom Paine he ran so fast
W:Left me standing still
W:And then there was a piece of paper in my hand
W:Standing at the top of the hill
W:And it said, "This is the age of reason
W:And these are the rights of man
W:I kick off religion and monarchy"
W:It was written there in Tom Paine's plan
W:
W:Chorus
W:
W:Well, old Tom Paine dead he lies
W:Nobody laughs and nobody cries
W:Where he′s gone or how he fares
W:Nobody knows and nobody cares
W:
W:Chorus

